X:10
T:The Bantry Lasses
R:reel
M:4/4
L:1/8
K:Dmaj
|: ~F3E D~F3 | G2FG EGAG | ~F3E D2Ad | cAGE EDD2 |
~F3E D~F3 | G2FG EGAG | ~F3E D2Ad | cAGE EDD2 :|
|: Addc d3A | (3Bcd ef gfed | Addc deed | cAGE EDD2 |
Addc d3A | (3Bcd ef gfge | fgfd efed | cAGE EDD2 :|

